svg/azure-activity-log.svg

<?xml version="1.0" encoding="UTF-8"?>
<svg xmlns="http://www.w3.org/2000/svg" xmlns:xlink="http://www.w3.org/1999/xlink" width="32" height="32" viewBox="0 0 32 32">
<defs>
<linearGradient id="linear-pattern-0" gradientUnits="userSpaceOnUse" x1="8.15" y1="17.5" x2="8.15" y2="2.09" gradientTransform="matrix(1.777778, 0.00266842, -0.00266842, 1.777778, 0, 0)">
<stop offset="0" stop-color="rgb(9.803922%, 53.333333%, 85.098039%)" stop-opacity="1"/>
<stop offset="0.9" stop-color="rgb(32.941176%, 68.235294%, 94.117647%)" stop-opacity="1"/>
</linearGradient>
</defs>
<path fill-rule="nonzero" fill="rgb(0%, 35.686275%, 63.137255%)" fill-opacity="1" d="M 3.429688 3.75 L 5.582031 1.246094 C 5.785156 1.015625 6.078125 0.886719 6.382812 0.890625 L 27.023438 0.890625 C 27.433594 0.851562 27.84375 0.988281 28.144531 1.269531 C 28.449219 1.550781 28.617188 1.949219 28.605469 2.363281 L 28.605469 28.140625 C 28.601562 28.433594 28.472656 28.714844 28.25 28.90625 L 25.9375 31.023438 L 4.835938 31.023438 L 3.394531 30.4375 Z M 3.429688 3.75 "/>
<path fill-rule="nonzero" fill="rgb(100%, 100%, 100%)" fill-opacity="1" d="M 5.171875 3.734375 L 6.488281 2.238281 C 6.644531 2.054688 6.867188 1.941406 7.109375 1.921875 L 26.472656 1.921875 C 26.984375 1.921875 27.394531 2.335938 27.394531 2.84375 L 27.394531 27.34375 C 27.402344 27.605469 27.289062 27.859375 27.09375 28.035156 L 25.03125 29.902344 Z M 5.171875 3.734375 "/>
<path fill-rule="nonzero" fill="url(#linear-pattern-0)" d="M 24.890625 3.714844 L 3.554688 3.714844 C 3.5 3.71875 3.453125 3.761719 3.449219 3.820312 L 3.449219 30.488281 C 3.460938 30.863281 3.765625 31.164062 4.140625 31.164062 L 24.890625 31.164062 C 25.261719 31.164062 25.5625 30.863281 25.5625 30.488281 L 25.5625 4.410156 C 25.566406 4.230469 25.5 4.054688 25.371094 3.921875 C 25.246094 3.792969 25.074219 3.71875 24.890625 3.714844 "/>
<path fill-rule="nonzero" fill="rgb(100%, 100%, 100%)" fill-opacity="1" d="M 8.890625 11.023438 L 19.589844 11.023438 C 19.867188 11.023438 20.089844 11.246094 20.089844 11.519531 L 20.089844 14.753906 C 20.089844 15.03125 19.867188 15.253906 19.589844 15.253906 L 8.890625 15.253906 C 8.757812 15.253906 8.628906 15.203125 8.535156 15.109375 C 8.441406 15.015625 8.390625 14.886719 8.390625 14.753906 L 8.390625 11.519531 C 8.390625 11.386719 8.441406 11.261719 8.535156 11.167969 C 8.628906 11.074219 8.757812 11.019531 8.890625 11.023438 M 8.890625 11.023438 "/>
</svg>

<svg role="img" viewBox="0 0 32 32" height="32" width="32" xmlns="http://www.w3.org/2000/svg"><defs><linearGradient gradientTransform="rotate(.086)scale(1.77778)" gradientUnits="userSpaceOnUse" id="1376__1375__407__406__264__263__512__511__150__149__151__150__504__503__151__150__43__42__75__74__511__510__azure-activity-log_svg__svg/azure-activity-log.svg303__svg/azure-activity-log.svg301__azure-activity-log-lp-0" x1="8.15" x2="8.15" y1="17.5" y2="2.09"><stop offset="0" stop-color="rgb(9.803922%, 53.333333%, 85.098039%)"/><stop offset=".9" stop-color="rgb(32.941176%, 68.235294%, 94.117647%)"/></linearGradient></defs><path d="m3.43 3.75 2.152-2.504c.203-.23.496-.36.8-.355h20.641a1.443 1.443 0 0 1 1.582 1.472v25.778a1.03 1.03 0 0 1-.355.765l-2.312 2.117H4.836l-1.441-.585Zm0 0" fill="rgb(0%, 35.686275%, 63.137255%)"/><path d="m5.172 3.734 1.316-1.496a.91.91 0 0 1 .621-.316h19.364c.511 0 .922.414.922.922v24.5a.9.9 0 0 1-.301.691l-2.063 1.867Zm0 0" fill="rgb(100%, 100%, 100%)"/><path d="M24.89 3.715H3.556a.113.113 0 0 0-.106.105v26.668a.695.695 0 0 0 .692.676h20.75c.37 0 .672-.3.672-.676V4.41a.682.682 0 0 0-.672-.695" fill="url(#1376__1375__407__406__264__263__512__511__150__149__151__150__504__503__151__150__43__42__75__74__511__510__azure-activity-log_svg__svg/azure-activity-log.svg303__svg/azure-activity-log.svg301__azure-activity-log-lp-0)"/><path d="M8.89 11.023h10.7c.277 0 .5.223.5.497v3.234c0 .277-.223.5-.5.5H8.89a.502.502 0 0 1-.355-.145.502.502 0 0 1-.144-.355V11.52a.493.493 0 0 1 .5-.497m0 0" fill="rgb(100%, 100%, 100%)"/></svg>
